X: 229
T:Paddy Carey
% Nottingham Music Database
S:Join the Band, via EF
Y:AB
M:6/8
K:D
P:A
A|"D"d2d dcd|"G"B2d "D"A3|"A7"ABc "D"def|"G"g2e "A7"cBc|
"D"d2d dcd|"G"B2d "D"A3|"A7"ABc "D"def|"A7"gec "D"d2:|
P:B
A|"D"d2e f2f|"D"fgf fed|"Em"e2d e2d|"Em"e2d "A7"e2f|
"D"d2e f2f|"D"fgf fed|"Em"e2d "A7"e2f|"D"d3 d2:|


